X:1
T:Title
L:1/8
Q:1/4=120
M:none
K:C
V:1 treble nm="Voice"
V:1
 ([cce]8 B2 ^A) B2 c2 | (Bdc)B ^AB G2 | ((de))=fe d2 cB | c>B cd cdcB | B>^A GA B2 c | d4 dccB | %6
 d/e/ f2 e/d/ d2 z2 || d2 ef g4 | g/f/g/a/ gf f>e d2 | dgfg e=fde | d>(c z2 Bc) d4 | %11
 z d2 e d>c B2 | d/c/d/e/ dc B>((^A GA)) | B6 z2 || BcBc d4 | e2 de f2 ed | defg aggf | %17
 g3 a f>e d2 | gffe eddc | defg gffe | d/e/ f2 e/d/ d4 || dede fagf | f/e/f/g/ fe d4 | %23
 c'2 ba ag=fe | de/=f/ ed d>c B2 | ed/ ce d>c Bd | c>B ^AB AB c/d/c/B/ | B3 g f3 z || B3 c' b4 || %29
 B3 (c d4) || B4- B2 z2 || ^f4 d4 | ede fef g4 | fgfg a2 gf | b2 ag a/g/f/^e/ f2 | %35
 z f/^e/ fg fgf=e | z e/d/ e=f efed | d3 e d2 z2 || dede fgaf | g3 a gfed | f3 g fedc | e3 g feed | %42
 d/c/d/e/ dc B^A B2 | d2 cB e2 dc | dc/d/ c/B/^A B3 z || ^a2 b4 d'c' | bc'b^a b>a g2 | %47
 c'2 b^a b2 ag | fg^a!mp!b a/g/f/^e/ f2 | z f/g/ fg ^abc'd' | d'c'/d'/ c'b ^ab c'/d'/c'/b/ | %51
 b3 c' d'2 z2 || c'2 d'2 d'e'd'c' | c'd'c'b b>^a g2 | c'>b ^ab abag | fc'b^a a/g/f/^e/ f2 | %56
 ^f2 ed ag=fe | d2 cB e2 dc | dc/d/ c/B/^A B4 || B3 d c3 e | d/c/d/e/ dc B>^A B2 | d2 ef ag=fe | %62
 d>c Bc d2 z2 | d3 e f3 a | g4 gffe | d/e/ f2 e/d/ d4 || g2 fa g>f e2 | f2 eg f>e d2 | aggf feed | %69
 d/c/d/e/ dc B^A B2 | edcB A3 G | Bcde d>c Bd | c>B ^Ac B4 || %73

